X:1
T:Title
%%score { 1 | 2 }
L:1/8
M:6/8
K:Bb
V:1 treble nm="Grand Piano"
V:2 bass 
V:1
 z3 z2[Q:1/4=78] [B,DF] | [F,B,D][B,DF][DFB] [EFc][DFB][DF] | [Fd] [Fd]2- [Fd]2 [DF] | %3
 [B,D][DF][DB] [Fd][Fe]>[Fd] |[M:5/8] c-c- c3 |[M:1/8] A |[M:3/4] EF Ac AF | ec- c3 F | %8
 =E[EG] [EB][Ec] [EB][EG] |[M:5/8] [Ec]-[Ec]- [Ec]3 |[M:1/8] [Ff] | %11
[M:3/4] [Fd]2 [Ec]/[DB]/ [Fd]2 [DF]/[DB]/ | [EG][DF]- [DF]3 F | c2 A/G/F GE |[M:5/8] D-D- D3 | %15
[M:1/8] [DF] |[M:3/4] [DB]2 [DB]/[DB]/ [Fd]2 [_Af] | [_Af][Ge]- [Ge]3 G/G/ | F2 B d2 c | %19
[M:5/8] [DB]-[DB]- [DB]3 |] %20
V:2
 z3 z2 B,, | B,,B,,B,, B,,B,,[B,,B,] | [B,,B,] [B,,B,]2- [B,,B,]2 [B,,B,] | %3
 [B,,F,][B,,B,][B,,B,] [B,,B,][C,A,]>[D,B,] |[M:5/8] [F,A,F]-[F,A,F]- [F,A,F]3 |[M:1/8] [F,CE] | %6
[M:3/4] [F,A,C][F,A,E] [F,CE][F,A,E] [F,CE][F,A,E] | [F,CF][F,A,F]- [F,A,F]3 [F,A,C] | %8
 [C,B,C][C,B,] [C,G,][C,G,] [C,G,][C,B,] |[M:5/8] [F,A,]-[F,A,]- [F,A,]3 |[M:1/8] [F,A,] | %11
[M:3/4] [B,,B,]2 [B,,B,]/[B,,B,]/ [B,,B,]2 [B,,B,]/[B,,B,]/ | [B,,B,][B,,B,]- [B,,B,]3 [D,B,] | %13
 [F,A,E]2 [F,CE]/[F,B,E]/[F,A,E] [F,A,E][F,C] |[M:5/8] [B,,F,B,]-[B,,F,B,]- [B,,F,B,]3 | %15
[M:1/8] [B,,B,] |[M:3/4] [B,,F,]2 [B,,F,]/[B,,F,]/ [B,,B,]2 [D,B,] | %17
 [E,B,][E,B,]- [E,B,]3 [E,B,E]/[E,B,E]/ | [F,B,D]2 [F,B,D] [F,B,F]2 [F,A,E] | %19
[M:5/8] [B,,B,]-[B,,B,]- [B,,B,]3 |] %20

